images/star_fill.svg

<svg width="12" height="12" viewBox="0 0 12 12" fill="none" xmlns="http://www.w3.org/2000/svg">
<path fill-rule="evenodd" clip-rule="evenodd" d="M6.69769 1.14922C6.43817 0.528396 5.56198 0.528387 5.30244 1.14919L6.69769 1.14922ZM5.30244 1.14919L4.14719 3.90977L1.19202 4.16613C0.519264 4.22467 0.262282 5.05966 0.759713 5.49464L3.00514 7.45915L2.33207 10.3824C2.18436 11.0238 2.87792 11.5567 3.46133 11.2023L6.00032 9.65611L8.53797 11.2015C9.12269 11.5588 9.81568 11.0227 9.66861 10.3826L8.99549 7.45915L11.2402 5.49537C11.7385 5.05961 11.4793 4.22519 10.8083 4.16667L7.85294 3.91029L6.69769 1.14922" fill="#FF970D"/>
</svg>

<svg width="12" height="12" fill="none" xmlns="http://www.w3.org/2000/svg"><path fill-rule="evenodd" clip-rule="evenodd" d="M6.698 1.15a.755.755 0 0 0-1.396 0h1.396zm-1.396 0L4.147 3.91l-2.955.256c-.673.059-.93.894-.432 1.329l2.245 1.964-.673 2.923c-.148.642.546 1.175 1.13.82L6 9.656l2.538 1.545c.585.358 1.278-.178 1.13-.818l-.673-2.924 2.245-1.964c.498-.435.24-1.27-.432-1.328L7.853 3.91 6.698 1.15" fill="#FF970D"/></svg>
